X: 457
U:~=!turn!
U:t=!tenuto!
M:C|
L:1/8
K:G aeolian
^c | (td>.c){/c}(tB>.A) G2- G>A | B>A G<d B<~GG<^c | (td>.=c)(tB>.A) G2 G>B | A>GF<f A<F ~F>^c | (td>.c){/c}(tB>.A) G2- G>A |
(ta>.g){/g}(tf>.=e) {/=e}f2 (tc>.f) | a<f=e<f c<fA<f | (tb>.a){/a}(tg>.^f) {/^f}g2 (td>.g) | b<gd<g B<gd<g | a<fg<=e f<d=e<c | d<Bc<A B<~GG |]


